svgs/duotone/square-info.svg

<svg xmlns="http://www.w3.org/2000/svg" viewBox="0 0 448 512"><!-- Font Awesome Pro 6.0.0-alpha2 by @fontawesome - https://fontawesome.com License - https://fontawesome.com/license (Commercial License) --><defs><style>.fa-secondary{opacity:.4}</style></defs><path d="M384 32H64C28.654 32 0 60.652 0 96V416C0 451.344 28.654 480 64 480H384C419.346 480 448 451.344 448 416V96C448 60.652 419.346 32 384 32ZM224 128C241.674 128 256 142.326 256 160C256 177.672 241.674 192 224 192S192 177.672 192 160C192 142.326 206.326 128 224 128ZM264 384H184C170.75 384 160 373.25 160 360S170.75 336 184 336H200V272H192C178.75 272 168 261.25 168 248S178.75 224 192 224H224C237.25 224 248 234.75 248 248V336H264C277.25 336 288 346.75 288 360S277.25 384 264 384Z" class="fa-secondary"/><path d="M224 192C241.674 192 256 177.672 256 160C256 142.326 241.674 128 224 128S192 142.326 192 160C192 177.672 206.326 192 224 192ZM264 336H248V248C248 234.75 237.25 224 224 224H192C178.75 224 168 234.75 168 248S178.75 272 192 272H200V336H184C170.75 336 160 346.75 160 360S170.75 384 184 384H264C277.25 384 288 373.25 288 360S277.25 336 264 336Z" class="fa-primary"/></svg>

<svg xmlns="http://www.w3.org/2000/svg" viewBox="0 0 448 512"><!--! Font Awesome Pro 6.4.0 by @fontawesome - https://fontawesome.com License - https://fontawesome.com/license (Commercial License) Copyright 2023 Fonticons, Inc. --><defs><style>.fa-secondary{opacity:.4}</style></defs><path class="fa-primary" d="M224 128a32 32 0 1 1 0 64 32 32 0 1 1 0-64zM160 248c0-13.3 10.7-24 24-24h48c13.3 0 24 10.7 24 24v88h8c13.3 0 24 10.7 24 24s-10.7 24-24 24H184c-13.3 0-24-10.7-24-24s10.7-24 24-24h24V272H184c-13.3 0-24-10.7-24-24z"/><path class="fa-secondary" d="M64 32C28.7 32 0 60.7 0 96V416c0 35.3 28.7 64 64 64H384c35.3 0 64-28.7 64-64V96c0-35.3-28.7-64-64-64H64zM184 336h24V272H184c-13.3 0-24-10.7-24-24s10.7-24 24-24h48c13.3 0 24 10.7 24 24v88h8c13.3 0 24 10.7 24 24s-10.7 24-24 24H184c-13.3 0-24-10.7-24-24s10.7-24 24-24zm40-208a32 32 0 1 1 0 64 32 32 0 1 1 0-64z"/></svg>
